svg/device/escalator_down_line.svg

<?xml version="1.0" encoding="UTF-8"?>
<svg width="24px" height="24px" viewBox="0 0 24 24" version="1.1" xmlns="http://www.w3.org/2000/svg" xmlns:xlink="http://www.w3.org/1999/xlink">
    <title>escalator_down_line</title>
    <g id="Icon" stroke="none" stroke-width="1" fill="none" fill-rule="evenodd">
        <g id="Device" transform="translate(0.000000, -384.000000)">
            <g id="escalator_down_line" transform="translate(0.000000, 384.000000)">
                <path d="M24,0 L24,24 L0,24 L0,0 L24,0 Z M12.5935,23.2578 L12.5819,23.2595 L12.5109,23.295 L12.4919,23.2987 L12.4767,23.295 L12.4057,23.2595 C12.3958,23.2564 12.387,23.259 12.3821,23.2649 L12.378,23.2758 L12.3609,23.7031 L12.3659,23.7235 L12.3769,23.7357 L12.4805,23.8097 L12.4953,23.8136 L12.5071,23.8097 L12.6107,23.7357 L12.6233,23.7197 L12.6267,23.7031 L12.6096,23.2758 C12.6076,23.2657 12.601,23.2593 12.5935,23.2578 Z M12.8584,23.1453 L12.8445,23.1473 L12.6598,23.2397 L12.6499,23.2499 L12.6472,23.2611 L12.6651,23.6906 L12.6699,23.7034 L12.6784,23.7105 L12.8793,23.8032 C12.8914,23.8069 12.9022,23.803 12.9078,23.7952 L12.9118,23.7812 L12.8777,23.1665 C12.8753,23.1546 12.8674,23.147 12.8584,23.1453 Z M12.143,23.1473 C12.1332,23.1424 12.1222,23.1453 12.1156,23.1526 L12.1099,23.1665 L12.0758,23.7812 C12.0751,23.7927 12.0828,23.8019 12.0926,23.8046 L12.1083,23.8032 L12.3092,23.7105 L12.3186,23.7024 L12.3225,23.6906 L12.3404,23.2611 L12.3372,23.2485 L12.3278,23.2397 L12.143,23.1473 Z" id="MingCute" fill-rule="nonzero"></path>
                <path d="M18,3.17163 C18.5523,3.17163 19,3.61935 19,4.17163 L19,7.41421 L19.4142,7 C19.8047,6.60948 20.4379,6.60948 20.8284,7 C21.219,7.39052 21.219,8.02369 20.8284,8.41421 L18.7071,10.5355 C18.3166,10.9261 17.6834,10.9261 17.2929,10.5355 L15.1716,8.41421 C14.781,8.02369 14.781,7.39052 15.1716,7 C15.5621,6.60948 16.1953,6.60948 16.5858,7 L17,7.41421 L17,4.17163 C17,3.61935 17.4477,3.17163 18,3.17163 Z M2,7.00006 C2,5.3432 3.34315,4.00006 5,4.00006 L8.03875,4.00006 C8.9501,4.00006 9.81204,4.41433 10.3814,5.12597 L17.4806,14.0001 L19,14.0001 C20.6569,14.0001 22,15.3432 22,17.0001 C22,18.6569 20.6569,20.0001 19,20.0001 L15.9612,20.0001 C15.0499,20.0001 14.188,19.5858 13.6186,18.8741 L6.51937,10.0001 L5,10.0001 C3.34315,10.0001 2,8.65691 2,7.00006 Z M20,17.0001 C20,16.4478 19.5523,16.0001 19,16.0001 L17,16.0001 C16.6962,16.0001 16.4089,15.862 16.2191,15.6248 L8.81962,6.37536 C8.62985,6.13815 8.34253,6.00006 8.03875,6.00006 L5,6.00006 C4.44772,6.00006 4,6.44777 4,7.00006 C4,7.55234 4.44772,8.00006 5,8.00006 L6.75969,8.00006 C7.21536,8.00006 7.64633,8.20719 7.93099,8.56302 L15.1804,17.6248 C15.3702,17.862 15.6575,18.0001 15.9612,18.0001 L19,18.0001 C19.5523,18.0001 20,17.5523 20,17.0001 Z" id="形状" fill="#09244B"></path>
            </g>
        </g>
    </g>
</svg>

<svg xmlns="http://www.w3.org/2000/svg" width="24" height="24"><g fill="none" fill-rule="evenodd"><path d="M24 0v24H0V0h24ZM12.594 23.258l-.012.002-.071.035-.02.004-.014-.004-.071-.036c-.01-.003-.019 0-.024.006l-.004.01-.017.428.005.02.01.013.104.074.015.004.012-.004.104-.074.012-.016.004-.017-.017-.427c-.002-.01-.009-.017-.016-.018Zm.264-.113-.014.002-.184.093-.01.01-.003.011.018.43.005.012.008.008.201.092c.012.004.023 0 .029-.008l.004-.014-.034-.614c-.003-.012-.01-.02-.02-.022Zm-.715.002a.023.023 0 0 0-.027.006l-.006.014-.034.614c0 .012.007.02.017.024l.015-.002.201-.093.01-.008.003-.011.018-.43-.003-.012-.01-.01-.184-.092Z"/><path fill="#09244B" d="M18 3.172a1 1 0 0 1 1 1v3.242L19.414 7a1 1 0 1 1 1.414 1.414l-2.12 2.122a1 1 0 0 1-1.415 0l-2.121-2.122A1 1 0 1 1 16.586 7l.414.414V4.172a1 1 0 0 1 1-1ZM2 7a3 3 0 0 1 3-3h3.039a3 3 0 0 1 2.342 1.126l7.1 8.874H19a3 3 0 1 1 0 6h-3.039a3 3 0 0 1-2.342-1.126L6.519 10H5a3 3 0 0 1-3-3Zm18 10a1 1 0 0 0-1-1h-2a1 1 0 0 1-.78-.375l-7.4-9.25A1 1 0 0 0 8.039 6H5a1 1 0 1 0 0 2h1.76a1.5 1.5 0 0 1 1.171.563l7.25 9.062a1 1 0 0 0 .78.375H19a1 1 0 0 0 1-1Z"/></g></svg>
